images/51004211.svg

<?xml version="1.0" encoding="UTF-8"?>
<svg xmlns="http://www.w3.org/2000/svg" xmlns:xlink="http://www.w3.org/1999/xlink" width="300pt" height="300pt" viewBox="0 0 300 300" version="1.1">
<defs>
<g>
<symbol overflow="visible" id="glyph0-0">
<path style="stroke:none;" d="M 0.546875 1.9375 L 0.546875 -7.75 L 6.046875 -7.75 L 6.046875 1.9375 Z M 1.171875 1.328125 L 5.4375 1.328125 L 5.4375 -7.140625 L 1.171875 -7.140625 Z M 1.171875 1.328125 "/>
</symbol>
<symbol overflow="visible" id="glyph0-1">
<path style="stroke:none;" d="M 5.890625 -7.75 L 5.890625 -6.703125 C 5.472656 -6.898438 5.082031 -7.046875 4.71875 -7.140625 C 4.351562 -7.234375 4 -7.28125 3.65625 -7.28125 C 3.070312 -7.28125 2.617188 -7.164062 2.296875 -6.9375 C 1.972656 -6.707031 1.8125 -6.382812 1.8125 -5.96875 C 1.8125 -5.613281 1.914062 -5.34375 2.125 -5.15625 C 2.34375 -4.976562 2.75 -4.832031 3.34375 -4.71875 L 4 -4.59375 C 4.8125 -4.4375 5.410156 -4.160156 5.796875 -3.765625 C 6.179688 -3.378906 6.375 -2.863281 6.375 -2.21875 C 6.375 -1.4375 6.113281 -0.84375 5.59375 -0.4375 C 5.070312 -0.0390625 4.304688 0.15625 3.296875 0.15625 C 2.921875 0.15625 2.515625 0.109375 2.078125 0.015625 C 1.648438 -0.0664062 1.207031 -0.191406 0.75 -0.359375 L 0.75 -1.46875 C 1.195312 -1.21875 1.628906 -1.03125 2.046875 -0.90625 C 2.472656 -0.78125 2.890625 -0.71875 3.296875 -0.71875 C 3.921875 -0.71875 4.398438 -0.835938 4.734375 -1.078125 C 5.066406 -1.328125 5.234375 -1.675781 5.234375 -2.125 C 5.234375 -2.519531 5.113281 -2.828125 4.875 -3.046875 C 4.632812 -3.273438 4.238281 -3.445312 3.6875 -3.5625 L 3.03125 -3.6875 C 2.21875 -3.84375 1.628906 -4.09375 1.265625 -4.4375 C 0.898438 -4.78125 0.71875 -5.257812 0.71875 -5.875 C 0.71875 -6.582031 0.96875 -7.140625 1.46875 -7.546875 C 1.96875 -7.960938 2.660156 -8.171875 3.546875 -8.171875 C 3.921875 -8.171875 4.300781 -8.132812 4.6875 -8.0625 C 5.082031 -7.988281 5.484375 -7.882812 5.890625 -7.75 Z M 5.890625 -7.75 "/>
</symbol>
<symbol overflow="visible" id="glyph0-2">
<path style="stroke:none;" d="M 1.078125 -8.015625 L 2.546875 -8.015625 L 6.09375 -1.3125 L 6.09375 -8.015625 L 7.15625 -8.015625 L 7.15625 0 L 5.6875 0 L 2.125 -6.703125 L 2.125 0 L 1.078125 0 Z M 1.078125 -8.015625 "/>
</symbol>
<symbol overflow="visible" id="glyph0-3">
<path style="stroke:none;" d="M 1.078125 -8.015625 L 2.171875 -8.015625 L 2.171875 -4.734375 L 6.109375 -4.734375 L 6.109375 -8.015625 L 7.1875 -8.015625 L 7.1875 0 L 6.109375 0 L 6.109375 -3.8125 L 2.171875 -3.8125 L 2.171875 0 L 1.078125 0 Z M 1.078125 -8.015625 "/>
</symbol>
<symbol overflow="visible" id="glyph0-4">
<path style="stroke:none;" d="M 4.328125 -7.28125 C 3.546875 -7.28125 2.921875 -6.984375 2.453125 -6.390625 C 1.992188 -5.804688 1.765625 -5.007812 1.765625 -4 C 1.765625 -2.988281 1.992188 -2.1875 2.453125 -1.59375 C 2.921875 -1.007812 3.546875 -0.71875 4.328125 -0.71875 C 5.117188 -0.71875 5.742188 -1.007812 6.203125 -1.59375 C 6.660156 -2.1875 6.890625 -2.988281 6.890625 -4 C 6.890625 -5.007812 6.660156 -5.804688 6.203125 -6.390625 C 5.742188 -6.984375 5.117188 -7.28125 4.328125 -7.28125 Z M 4.328125 -8.171875 C 5.453125 -8.171875 6.351562 -7.789062 7.03125 -7.03125 C 7.707031 -6.28125 8.046875 -5.269531 8.046875 -4 C 8.046875 -2.738281 7.707031 -1.726562 7.03125 -0.96875 C 6.351562 -0.21875 5.453125 0.15625 4.328125 0.15625 C 3.203125 0.15625 2.300781 -0.21875 1.625 -0.96875 C 0.957031 -1.71875 0.625 -2.726562 0.625 -4 C 0.625 -5.269531 0.957031 -6.28125 1.625 -7.03125 C 2.300781 -7.789062 3.203125 -8.171875 4.328125 -8.171875 Z M 4.328125 -8.171875 "/>
</symbol>
</g>
</defs>
<g id="surface24057">
<rect x="0" y="0" width="300" height="300" style="fill:rgb(100%,100%,100%);fill-opacity:1;stroke:none;"/>
<path style="fill:none;stroke-width:1.2;stroke-linecap:butt;stroke-linejoin:miter;stroke:rgb(80%,80%,0%);stroke-opacity:1;stroke-miterlimit:10;" d="M 180.8125 116.203125 L 194.6875 113.90625 "/>
<path style="fill:none;stroke-width:1.2;stroke-linecap:butt;stroke-linejoin:miter;stroke:rgb(0%,0%,0%);stroke-opacity:1;stroke-miterlimit:10;" d="M 194.6875 113.90625 L 208.558594 111.605469 "/>
<path style="fill:none;stroke-width:1.2;stroke-linecap:butt;stroke-linejoin:miter;stroke:rgb(0%,0%,0%);stroke-opacity:1;stroke-miterlimit:10;" d="M 176.613281 144.011719 L 178.714844 130.109375 "/>
<path style="fill:none;stroke-width:1.2;stroke-linecap:butt;stroke-linejoin:miter;stroke:rgb(80%,80%,0%);stroke-opacity:1;stroke-miterlimit:10;" d="M 178.714844 130.109375 L 180.8125 116.203125 "/>
<path style=" stroke:none;fill-rule:nonzero;fill:rgb(100%,100%,100%);fill-opacity:1;" d="M 177.8125 109.703125 L 184.8125 109.703125 L 184.8125 122.703125 L 177.8125 122.703125 Z M 177.8125 109.703125 "/>
<g style="fill:rgb(80%,80%,0%);fill-opacity:1;">
  <use xlink:href="#glyph0-1" x="177.8125" y="119.604492"/>
</g>
<path style="fill:none;stroke-width:1.2;stroke-linecap:butt;stroke-linejoin:miter;stroke:rgb(0%,0%,0%);stroke-opacity:1;stroke-miterlimit:10;" d="M 208.558594 111.605469 L 221.507812 136.570312 "/>
<path style="fill:none;stroke-width:1.2;stroke-linecap:butt;stroke-linejoin:miter;stroke:rgb(0%,0%,0%);stroke-opacity:1;stroke-miterlimit:10;" d="M 215.726562 111.054688 L 226.085938 131.027344 "/>
<path style="fill:none;stroke-width:1.2;stroke-linecap:butt;stroke-linejoin:miter;stroke:rgb(0%,0%,0%);stroke-opacity:1;stroke-miterlimit:10;" d="M 223.707031 87.910156 L 208.558594 111.605469 "/>
<path style="fill:none;stroke-width:1.2;stroke-linecap:butt;stroke-linejoin:miter;stroke:rgb(0%,0%,0%);stroke-opacity:1;stroke-miterlimit:10;" d="M 221.507812 136.570312 L 249.601562 137.839844 "/>
<path style="fill:none;stroke-width:1.2;stroke-linecap:butt;stroke-linejoin:miter;stroke:rgb(0%,0%,0%);stroke-opacity:1;stroke-miterlimit:10;" d="M 221.507812 136.570312 L 201.765625 156.601562 "/>
<path style="fill:none;stroke-width:1.2;stroke-linecap:butt;stroke-linejoin:miter;stroke:rgb(0%,0%,0%);stroke-opacity:1;stroke-miterlimit:10;" d="M 249.601562 137.839844 L 264.75 114.144531 "/>
<path style="fill:none;stroke-width:1.2;stroke-linecap:butt;stroke-linejoin:miter;stroke:rgb(0%,0%,0%);stroke-opacity:1;stroke-miterlimit:10;" d="M 264.75 114.144531 L 251.800781 89.179688 "/>
<path style="fill:none;stroke-width:1.2;stroke-linecap:butt;stroke-linejoin:miter;stroke:rgb(0%,0%,0%);stroke-opacity:1;stroke-miterlimit:10;" d="M 251.800781 89.179688 L 223.707031 87.910156 "/>
<path style="fill:none;stroke-width:1.2;stroke-linecap:butt;stroke-linejoin:miter;stroke:rgb(0%,0%,0%);stroke-opacity:1;stroke-miterlimit:10;" d="M 201.765625 156.601562 L 206.363281 184.347656 "/>
<path style="fill:none;stroke-width:1.2;stroke-linecap:butt;stroke-linejoin:miter;stroke:rgb(0%,0%,0%);stroke-opacity:1;stroke-miterlimit:10;" d="M 201.765625 156.601562 L 176.613281 144.011719 "/>
<path style="fill:none;stroke-width:1.2;stroke-linecap:butt;stroke-linejoin:miter;stroke:rgb(0%,0%,0%);stroke-opacity:1;stroke-miterlimit:10;" d="M 202.210938 149.425781 L 182.089844 139.355469 "/>
<path style="fill:none;stroke-width:1.2;stroke-linecap:butt;stroke-linejoin:miter;stroke:rgb(0%,0%,0%);stroke-opacity:1;stroke-miterlimit:10;" d="M 206.363281 184.347656 L 208.664062 198.21875 "/>
<path style="fill:none;stroke-width:1.2;stroke-linecap:butt;stroke-linejoin:miter;stroke:rgb(0%,0%,100%);stroke-opacity:1;stroke-miterlimit:10;" d="M 208.664062 198.21875 L 210.964844 212.089844 "/>
<path style="fill:none;stroke-width:1.2;stroke-linecap:butt;stroke-linejoin:miter;stroke:rgb(0%,0%,0%);stroke-opacity:1;stroke-miterlimit:10;" d="M 200.296875 188.203125 L 202.136719 199.300781 "/>
<path style="fill:none;stroke-width:1.2;stroke-linecap:butt;stroke-linejoin:miter;stroke:rgb(0%,0%,100%);stroke-opacity:1;stroke-miterlimit:10;" d="M 202.136719 199.300781 L 203.976562 210.398438 "/>
<path style="fill:none;stroke-width:1.2;stroke-linecap:butt;stroke-linejoin:miter;stroke:rgb(0%,0%,0%);stroke-opacity:1;stroke-miterlimit:10;" d="M 213.351562 186.039062 L 215.191406 197.136719 "/>
<path style="fill:none;stroke-width:1.2;stroke-linecap:butt;stroke-linejoin:miter;stroke:rgb(0%,0%,100%);stroke-opacity:1;stroke-miterlimit:10;" d="M 215.191406 197.136719 L 217.03125 208.234375 "/>
<path style=" stroke:none;fill-rule:nonzero;fill:rgb(100%,100%,100%);fill-opacity:1;" d="M 206.964844 205.589844 L 214.964844 205.589844 L 214.964844 218.589844 L 206.964844 218.589844 Z M 206.964844 205.589844 "/>
<g style="fill:rgb(0%,0%,100%);fill-opacity:1;">
  <use xlink:href="#glyph0-2" x="206.964844" y="215.491211"/>
</g>
<path style="fill:none;stroke-width:1.2;stroke-linecap:butt;stroke-linejoin:miter;stroke:rgb(0%,0%,0%);stroke-opacity:1;stroke-miterlimit:10;" d="M 176.613281 144.011719 L 164.132812 150.488281 "/>
<path style="fill:none;stroke-width:1.2;stroke-linecap:butt;stroke-linejoin:miter;stroke:rgb(0%,0%,100%);stroke-opacity:1;stroke-miterlimit:10;" d="M 164.132812 150.488281 L 151.648438 156.960938 "/>
<path style="fill:none;stroke-width:1.2;stroke-linecap:butt;stroke-linejoin:miter;stroke:rgb(0%,0%,100%);stroke-opacity:1;stroke-miterlimit:10;" d="M 151.648438 156.960938 L 139.800781 149.386719 "/>
<path style="fill:none;stroke-width:1.2;stroke-linecap:butt;stroke-linejoin:miter;stroke:rgb(0%,0%,0%);stroke-opacity:1;stroke-miterlimit:10;" d="M 139.800781 149.386719 L 127.953125 141.816406 "/>
<path style=" stroke:none;fill-rule:nonzero;fill:rgb(100%,100%,100%);fill-opacity:1;" d="M 143.648438 150.460938 L 160.648438 150.460938 L 160.648438 163.460938 L 143.648438 163.460938 Z M 143.648438 150.460938 "/>
<g style="fill:rgb(0%,0%,100%);fill-opacity:1;">
  <use xlink:href="#glyph0-2" x="143.648438" y="160.362305"/>
  <use xlink:href="#glyph0-3" x="151.631836" y="160.362305"/>
</g>
<path style="fill:none;stroke-width:1.2;stroke-linecap:butt;stroke-linejoin:miter;stroke:rgb(0%,0%,0%);stroke-opacity:1;stroke-miterlimit:10;" d="M 131.257812 141.964844 L 131.890625 127.917969 "/>
<path style="fill:none;stroke-width:1.2;stroke-linecap:butt;stroke-linejoin:miter;stroke:rgb(100%,0%,0%);stroke-opacity:1;stroke-miterlimit:10;" d="M 131.890625 127.917969 L 132.527344 113.867188 "/>
<path style="fill:none;stroke-width:1.2;stroke-linecap:butt;stroke-linejoin:miter;stroke:rgb(0%,0%,0%);stroke-opacity:1;stroke-miterlimit:10;" d="M 124.644531 141.664062 L 125.28125 127.617188 "/>
<path style="fill:none;stroke-width:1.2;stroke-linecap:butt;stroke-linejoin:miter;stroke:rgb(100%,0%,0%);stroke-opacity:1;stroke-miterlimit:10;" d="M 125.28125 127.617188 L 125.914062 113.570312 "/>
<path style="fill:none;stroke-width:1.2;stroke-linecap:butt;stroke-linejoin:miter;stroke:rgb(0%,0%,0%);stroke-opacity:1;stroke-miterlimit:10;" d="M 127.953125 141.816406 L 115.46875 148.289062 "/>
<path style="fill:none;stroke-width:1.2;stroke-linecap:butt;stroke-linejoin:miter;stroke:rgb(0%,0%,100%);stroke-opacity:1;stroke-miterlimit:10;" d="M 115.46875 148.289062 L 102.984375 154.761719 "/>
<path style=" stroke:none;fill-rule:nonzero;fill:rgb(100%,100%,100%);fill-opacity:1;" d="M 125.222656 107.21875 L 134.222656 107.21875 L 134.222656 120.21875 L 125.222656 120.21875 Z M 125.222656 107.21875 "/>
<g style="fill:rgb(100%,0%,0%);fill-opacity:1;">
  <use xlink:href="#glyph0-4" x="125.222656" y="117.120117"/>
</g>
<path style="fill:none;stroke-width:1.2;stroke-linecap:butt;stroke-linejoin:miter;stroke:rgb(0%,0%,100%);stroke-opacity:1;stroke-miterlimit:10;" d="M 102.984375 154.761719 L 91.136719 147.1875 "/>
<path style="fill:none;stroke-width:1.2;stroke-linecap:butt;stroke-linejoin:miter;stroke:rgb(0%,0%,0%);stroke-opacity:1;stroke-miterlimit:10;" d="M 91.136719 147.1875 L 79.289062 139.617188 "/>
<path style=" stroke:none;fill-rule:nonzero;fill:rgb(100%,100%,100%);fill-opacity:1;" d="M 94.984375 148.261719 L 111.984375 148.261719 L 111.984375 161.261719 L 94.984375 161.261719 Z M 94.984375 148.261719 "/>
<g style="fill:rgb(0%,0%,100%);fill-opacity:1;">
  <use xlink:href="#glyph0-2" x="94.984375" y="158.163086"/>
  <use xlink:href="#glyph0-3" x="102.967773" y="158.163086"/>
</g>
<path style="fill:none;stroke-width:1.2;stroke-linecap:butt;stroke-linejoin:miter;stroke:rgb(0%,0%,0%);stroke-opacity:1;stroke-miterlimit:10;" d="M 79.289062 139.617188 L 53.105469 149.882812 "/>
<path style="fill:none;stroke-width:1.2;stroke-linecap:butt;stroke-linejoin:miter;stroke:rgb(0%,0%,0%);stroke-opacity:1;stroke-miterlimit:10;" d="M 77.613281 111.542969 L 79.289062 139.617188 "/>
<path style="fill:none;stroke-width:1.2;stroke-linecap:butt;stroke-linejoin:miter;stroke:rgb(0%,0%,0%);stroke-opacity:1;stroke-miterlimit:10;" d="M 53.105469 149.882812 L 35.25 128.15625 "/>
<path style="fill:none;stroke-width:1.2;stroke-linecap:butt;stroke-linejoin:miter;stroke:rgb(0%,0%,0%);stroke-opacity:1;stroke-miterlimit:10;" d="M 35.25 128.15625 L 50.398438 104.457031 "/>
<path style="fill:none;stroke-width:1.2;stroke-linecap:butt;stroke-linejoin:miter;stroke:rgb(0%,0%,0%);stroke-opacity:1;stroke-miterlimit:10;" d="M 50.398438 104.457031 L 77.613281 111.542969 "/>
</g>
</svg>

<svg xmlns="http://www.w3.org/2000/svg" xmlns:xlink="http://www.w3.org/1999/xlink" width="300pt" height="300pt" viewBox="0 0 300 300"><defs><symbol overflow="visible"><path d="M.547 1.938V-7.75h5.5v9.688zm.625-.61h4.266v-8.47H1.171zm0 0"/></symbol><symbol overflow="visible" id="a"><path d="M5.89-7.75v1.047c-.417-.195-.808-.344-1.17-.438-.368-.094-.72-.14-1.064-.14-.586 0-1.04.116-1.36.343-.323.23-.483.554-.483.968 0 .357.1.626.312.814.22.18.625.324 1.22.437L4-4.593c.813.157 1.41.434 1.797.828.383.387.578.903.578 1.547 0 .783-.262 1.376-.78 1.783-.525.398-1.29.593-2.298.593-.375 0-.78-.047-1.22-.14C1.648-.066 1.208-.19.75-.36v-1.11c.445.25.88.44 1.297.564.426.125.844.187 1.25.187.625 0 1.1-.116 1.437-.358.332-.25.5-.598.5-1.047 0-.395-.12-.703-.36-.922-.24-.226-.636-.398-1.186-.515l-.657-.126c-.81-.156-1.4-.406-1.764-.75C.898-4.78.72-5.258.72-5.875c0-.707.25-1.266.75-1.672.5-.414 1.19-.625 2.077-.625.375 0 .754.04 1.14.11.395.074.797.18 1.204.312zm0 0"/></symbol><symbol overflow="visible" id="b"><path d="M1.078-8.016h1.47l3.546 6.704v-6.704h1.062V0H5.688L2.124-6.703V0H1.078zm0 0"/></symbol><symbol overflow="visible" id="c"><path d="M1.078-8.016h1.094v3.282H6.11v-3.282h1.077V0H6.11v-3.813H2.17V0H1.078zm0 0"/></symbol><symbol overflow="visible" id="d"><path d="M4.328-7.28c-.78 0-1.406.296-1.875.89-.46.585-.687 1.382-.687 2.39 0 1.012.226 1.813.687 2.406.47.586 1.094.875 1.875.875.79 0 1.414-.288 1.875-.874.457-.593.688-1.394.688-2.406 0-1.008-.23-1.805-.687-2.39-.46-.594-1.086-.89-1.875-.89zm0-.892c1.125 0 2.024.383 2.703 1.14C7.708-6.28 8.048-5.27 8.048-4c0 1.262-.34 2.273-1.016 3.03C6.353-.22 5.454.157 4.33.157S2.3-.22 1.625-.97c-.668-.75-1-1.757-1-3.03 0-1.27.332-2.28 1-3.03.676-.76 1.578-1.142 2.703-1.142zm0 0"/></symbol></defs><g><path fill="#fff" d="M0 0h300v300H0z"/><path d="M180.813 116.203l13.875-2.297" stroke-width="1.2" stroke="#cc0" stroke-miterlimit="10" fill="none"/><path d="M194.688 113.906l13.87-2.3M176.613 144.012l2.102-13.903" stroke-width="1.2" stroke="#000" stroke-miterlimit="10" fill="none"/><path d="M178.715 130.11l2.097-13.907" stroke-width="1.2" stroke="#cc0" stroke-miterlimit="10" fill="none"/><path d="M177.813 109.703h7v13h-7zm0 0" fill="#fff"/><use xlink:href="#a" x="177.813" y="119.604" fill="#cc0"/><path d="M208.56 111.605l12.948 24.965M215.727 111.055l10.36 19.972M223.707 87.91l-15.148 23.695M221.508 136.57l28.094 1.27M221.508 136.57l-19.742 20.032M249.602 137.84l15.148-23.695M264.75 114.145L251.8 89.18M251.8 89.18l-28.093-1.27M201.766 156.602l4.597 27.746M201.766 156.602l-25.153-12.59M202.21 149.426l-20.12-10.07M206.363 184.348l2.3 13.87" stroke-width="1.2" stroke="#000" stroke-miterlimit="10" fill="none"/><path d="M208.664 198.22l2.3 13.87" stroke-width="1.2" stroke="#00f" stroke-miterlimit="10" fill="none"/><path d="M200.297 188.203l1.84 11.098" stroke-width="1.2" stroke="#000" stroke-miterlimit="10" fill="none"/><path d="M202.137 199.3l1.84 11.098" stroke-width="1.2" stroke="#00f" stroke-miterlimit="10" fill="none"/><path d="M213.352 186.04l1.84 11.097" stroke-width="1.2" stroke="#000" stroke-miterlimit="10" fill="none"/><path d="M215.19 197.137l1.84 11.097" stroke-width="1.2" stroke="#00f" stroke-miterlimit="10" fill="none"/><path d="M206.965 205.59h8v13h-8zm0 0" fill="#fff"/><use xlink:href="#b" x="206.965" y="215.491" fill="#00f"/><path d="M176.613 144.012l-12.48 6.476" stroke-width="1.2" stroke="#000" stroke-miterlimit="10" fill="none"/><path d="M164.133 150.488l-12.485 6.473M151.648 156.96l-11.847-7.573" stroke-width="1.2" stroke="#00f" stroke-miterlimit="10" fill="none"/><path d="M139.8 149.387l-11.847-7.57" stroke-width="1.2" stroke="#000" stroke-miterlimit="10" fill="none"/><path d="M143.648 150.46h17v13h-17zm0 0" fill="#fff"/><g fill="#00f"><use xlink:href="#b" x="143.648" y="160.362"/><use xlink:href="#c" x="151.632" y="160.362"/></g><path d="M131.258 141.965l.633-14.047" stroke-width="1.2" stroke="#000" stroke-miterlimit="10" fill="none"/><path d="M131.89 127.918l.637-14.05" stroke-width="1.2" stroke="#f00" stroke-miterlimit="10" fill="none"/><path d="M124.645 141.664l.636-14.047" stroke-width="1.2" stroke="#000" stroke-miterlimit="10" fill="none"/><path d="M125.28 127.617l.634-14.047" stroke-width="1.2" stroke="#f00" stroke-miterlimit="10" fill="none"/><path d="M127.953 141.816l-12.484 6.473" stroke-width="1.2" stroke="#000" stroke-miterlimit="10" fill="none"/><path d="M115.47 148.29l-12.486 6.472" stroke-width="1.2" stroke="#00f" stroke-miterlimit="10" fill="none"/><path d="M125.223 107.22h9v13h-9zm0 0" fill="#fff"/><use xlink:href="#d" x="125.223" y="117.12" fill="#f00"/><path d="M102.984 154.762l-11.847-7.575" stroke-width="1.2" stroke="#00f" stroke-miterlimit="10" fill="none"/><path d="M91.137 147.188l-11.848-7.57" stroke-width="1.2" stroke="#000" stroke-miterlimit="10" fill="none"/><path d="M94.984 148.262h17v13h-17zm0 0" fill="#fff"/><g fill="#00f"><use xlink:href="#b" x="94.984" y="158.163"/><use xlink:href="#c" x="102.968" y="158.163"/></g><path d="M79.29 139.617l-26.185 10.266M77.613 111.543l1.676 28.074M53.105 149.883L35.25 128.156M35.25 128.156l15.148-23.7M50.398 104.457l27.215 7.086" stroke-width="1.2" stroke="#000" stroke-miterlimit="10" fill="none"/></g></svg>
